X:1
T:Trestemt motett
T:O mitissima Virgo Maria - Virgo virginum - Hæc dies
T:Dreistimmige Motette
T:Codex Bamberg (13. årh.)
%%score [ 1 2 3 ]
L:1/8
M:3/4
K:C
V:1 treble nm="Mezzosopran"
V:2 treble nm="Alt"
V:3 treble-8 nm="Tenor"
V:1
 A4 A2 | D4 (3E(FG) | E4 z2 | G4 G2 | E4 (3:2:2(F2 E) | E4 z2 | C4 (3:2:2D E2 | G4 (3:2:2A B2 | %8
w: O mi-|tis- si- * *|ma|Vir- go|Ma- ri- *|a|Pos- ce *|tu- um *|
 c4 (3BAG | A4 z2 | D4 (3:2:2(D2 E) | G4 G2 | G4 (3AGF | E4 z2 | A2 B2 A2 | G2 (3F(EF) D2 | A4 z2 | %17
w: fi- li- * *|um.|Ut no- *|bis au-|xi- li- * *|um,|Det _ et|re- me- * * di-|um|
 D4 D2 | E4 (3:2:2(F2 D) | E4 z2 | G2 G2 G2 | (G2 F2) (3:2:2E D2 | C4 G2 | A4 z2 | D4 (3EDC | %25
w: Con- tra|de- mo- *|num|Fal- li- bi-|les _ as- *|tu- ci-|as|Et ho- * *|
 D4 E2 | G4 (3AGF | !fermata!E6 |] %28
w: rum ne-|qui- ci- * *|as.|
V:2
 E4 E2 | G4 G2 | A4 z2 | D4 E2 | A4 (3B(cB) | A4 z2 | G4 A2 | G4 G2 | G4 F2 | E4 z2 | %10
w: Vir- go|vir- gi-|num,|Lu- men|lu- mi- * *|num|Re- for-|ma- trix|ho- mi-|num.|
 G4 (3:2:2F E2 | D4 E2 | G4 (3:2:2(A2 B) | A4 z2 | E4 E2 | D4 (3:2:2(F2 E) | E4 z2 | G4 G2 | %18
w: Quæ por- *|tas- ti|Do- mi- *|num:|Per te,|Ma- ri- *|a,|De- tur|
 A4 (3:2:2(A2 G) | A4 z2 | G4 (3:2:2A B2 | c4 A2 | G4 (3AGF | E4 z2 | G4 (3:2:2F E2 | D4 C2 | %26
w: ve- ni- *|a,|An- ge- *|lo nun-|ci- an- * *|te,|Vir- go *|es post|
 D4 (3:2:2F G2 | !fermata!A6 |] %28
w: et an- *|te.|
V:3
 A4 z2 | G4 B2 | A4 z2 | G4 z2 | A4 F2 | A4 z2 | c4 z2 | c6 | c4 z2 | A4 z2 | G4 A2 | G4 z2 | G6 | %13
w: Hæc|dies _|_|hæc|dies _|_|hæc|dies|_|hæc|dies _|_|hæc|
 A4 z2 | A4 z2 | G4 B2 | A4 z2 | G4 z2 | A4 F2 | A4 z2 | c4 z2 | c6- | c4 z2 | A4 z2 | G4 A2 | %25
w: dies|hæc|dies _|_|hæc|dies _|_|hæc|dies|_|hæc|dies _|
 G4 z2 | G6 | !fermata!A6 |] %28
w: _|hæc|dies.|

